source/images/buyers-guide/icon-phone.svg

<svg version="1.1" id="Layer_1" xmlns="http://www.w3.org/2000/svg" x="0" y="0" viewBox="0 0 28 28" xml:space="preserve"><style></style><path d="M28 23c-.1-.7-.5-1.3-1.1-1.6l-6.9-4c-.8-.5-1.9-.3-2.6.3L16 19.2c-.4.4-.9.4-1.3.1-1.1-.9-2.1-1.8-3.1-2.8-1-1-2-2.1-2.8-3.1-.3-.4-.3-1 .1-1.3l1.4-1.4c.6-.8.7-1.9.2-2.7l-4-6.9C6.2.5 5.6.1 5 0c-.7-.1-1.4.2-1.9.6l-2 2.1c-1.4 1.4-1.5 4-.1 7.4 1.3 3.2 3.8 6.7 7 9.9s6.7 5.7 9.9 7c1.6.7 3.1 1 4.3 1 1.3 0 2.3-.4 3-1.1l2.1-2.1c.5-.4.8-1.1.7-1.8zM4.7.9h.2c.3.1.7.3.9.6l4 6.9c.2.5.1 1.2-.3 1.6l-.3.3-5.3-9.1c.2-.2.5-.3.8-.3zm20 25.4c-1.1 1.1-3.5 1.1-6.4-.1-3.1-1.3-6.5-3.7-9.6-6.8-3.1-3.1-5.5-6.5-6.8-9.6-1.3-3-1.3-5.3-.2-6.5l1.5-1.5L8.5 11l-.4.4c-.6.6-.7 1.7-.1 2.5a44.038 44.038 0 0 0 6.1 6.1c.8.6 1.9.6 2.5-.1l.3-.3 9.2 5.2-1.4 1.5zm2.1-2.2l-9.2-5.2.4-.4c.4-.4 1-.5 1.5-.2l6.9 4c.3.2.6.5.6.9.1.3 0 .6-.2.9z" fill="#010101"/></svg>

<?xml version="1.0" encoding="utf-8"?>
<!-- Generator: Adobe Illustrator 22.0.1, SVG Export Plug-In . SVG Version: 6.00 Build 0)  -->
<svg version="1.1" id="Layer_1" xmlns="http://www.w3.org/2000/svg" xmlns:xlink="http://www.w3.org/1999/xlink" x="0px" y="0px"
	 viewBox="0 0 28 28" style="enable-background:new 0 0 28 28;" xml:space="preserve">
<style type="text/css">
	.st0{clip-path:url(#SVGID_2_);fill:#4753A4;}
	.st1{fill:none;stroke:#4753A4;stroke-width:0.5;stroke-miterlimit:10;}
	.st2{clip-path:url(#SVGID_4_);fill:#4753A4;}
	.st3{clip-path:url(#SVGID_6_);fill:#4753A4;}
	.st4{clip-path:url(#SVGID_8_);fill:#4753A4;}
	.st5{clip-path:url(#SVGID_10_);fill:#ED3749;}
	.st6{fill:none;stroke:#ED3749;stroke-width:0.5;stroke-miterlimit:10;}
	.st7{clip-path:url(#SVGID_12_);fill:#ED3749;}
	.st8{clip-path:url(#SVGID_14_);fill:#ED3749;}
	.st9{clip-path:url(#SVGID_16_);fill:#ED3749;}
	.st10{clip-path:url(#SVGID_18_);fill:#4CBFAA;}
	.st11{fill:none;stroke:#4CBFAA;stroke-width:0.5;stroke-miterlimit:10;}
	.st12{clip-path:url(#SVGID_20_);fill:#4CBFAA;}
	.st13{clip-path:url(#SVGID_22_);fill:#4CBFAA;}
	.st14{clip-path:url(#SVGID_24_);fill:none;stroke:#4CBFAA;stroke-width:2;stroke-miterlimit:10;}
	.st15{fill:#010101;}
	.st16{fill:none;stroke:#000000;stroke-linecap:round;stroke-linejoin:round;stroke-miterlimit:10;}
	.st17{fill:none;stroke:#ED3648;stroke-width:1.5;stroke-linecap:round;stroke-linejoin:round;stroke-miterlimit:10;}
	.st18{fill:none;stroke:#ED3648;stroke-width:1.25;stroke-linecap:round;stroke-linejoin:round;stroke-miterlimit:10;}
	.st19{fill:none;stroke:#4CBFA9;stroke-width:1.5;stroke-linecap:round;stroke-linejoin:round;stroke-miterlimit:10;}
	.st20{fill:none;stroke:#4CBFA9;stroke-width:1.25;stroke-linecap:round;stroke-linejoin:round;stroke-miterlimit:10;}
	.st21{fill:none;stroke:#4652A4;stroke-width:1.5;stroke-linecap:round;stroke-linejoin:round;stroke-miterlimit:10;}
	.st22{fill:none;stroke:#4652A4;stroke-width:1.25;stroke-linecap:round;stroke-linejoin:round;stroke-miterlimit:10;}
	.st23{fill:#ED3648;}
	.st24{fill:#4652A4;}
	.st25{fill:#4CBFA9;}
</style>
<path class="st15" d="M28,23c-0.1-0.7-0.5-1.3-1.1-1.6l-6.9-4c-0.8-0.5-1.9-0.3-2.6,0.3L16,19.2c-0.4,0.4-0.9,0.4-1.3,0.1
	c-1.1-0.9-2.1-1.8-3.1-2.8c-1-1-2-2.1-2.8-3.1c-0.3-0.4-0.3-1,0.1-1.3l1.4-1.4C10.9,9.9,11,8.8,10.5,8l-4-6.9C6.2,0.5,5.6,0.1,5,0
	C4.3-0.1,3.6,0.2,3.1,0.6L1.1,2.7c-1.4,1.4-1.5,4-0.1,7.4c1.3,3.2,3.8,6.7,7,9.9c3.2,3.2,6.7,5.7,9.9,7c1.6,0.7,3.1,1,4.3,1
	c1.3,0,2.3-0.4,3-1.1l2.1-2.1C27.8,24.4,28.1,23.7,28,23z M4.7,0.9c0.1,0,0.1,0,0.2,0C5.2,1,5.6,1.2,5.8,1.5l4,6.9
	C10,8.9,9.9,9.6,9.5,10l-0.3,0.3L3.9,1.2C4.1,1,4.4,0.9,4.7,0.9z M24.7,26.3c-1.1,1.1-3.5,1.1-6.4-0.1c-3.1-1.3-6.5-3.7-9.6-6.8
	c-3.1-3.1-5.5-6.5-6.8-9.6C0.6,6.8,0.6,4.5,1.7,3.3l1.5-1.5L8.5,11l-0.4,0.4C7.5,12,7.4,13.1,8,13.9c0.9,1.1,1.9,2.2,2.9,3.2
	c1,1,2.1,2,3.2,2.9c0.8,0.6,1.9,0.6,2.5-0.1l0.3-0.3l9.2,5.2L24.7,26.3z M26.8,24.1l-9.2-5.2l0.4-0.4c0.4-0.4,1-0.5,1.5-0.2l6.9,4
	c0.3,0.2,0.6,0.5,0.6,0.9C27.1,23.5,27,23.8,26.8,24.1z"/>
</svg>
